src/assets/icons/fit-size.svg

<svg viewBox="0 0 32 32" fill="none" xmlns="http://www.w3.org/2000/svg">
<path d="M30 23H23V30H25V25H30V23ZM1.99998 23H9V30H7V25H1.99998V23ZM30 9H23L23 2H25L25 7H30V9ZM1.99998 9H8.99999L9 2H7L6.99999 7H1.99998V9ZM21 22.0864H11C10.4697 22.0858 9.96133 21.875 9.58637 21.5C9.21141 21.125 9.00053 20.6166 9 20.0864V11.9136C9.00053 11.3834 9.21141 10.875 9.58637 10.5C9.96133 10.125 10.4697 9.91416 11 9.91363H21C21.5303 9.91416 22.0387 10.125 22.4136 10.5C22.7886 10.875 22.9995 11.3834 23 11.9136V20.0864C22.9995 20.6166 22.7886 21.125 22.4136 21.5C22.0387 21.875 21.5303 22.0858 21 22.0864ZM11 11.9136V20.0864H21V11.9136H11Z" fill="currentColor"/>
</svg>

<svg xmlns="http://www.w3.org/2000/svg" fill="none" viewBox="0 0 32 32">
  <path fill="currentColor"
    d="M30 23h-7v7h2v-5h5zM2 23h7v7H7v-5H2zM30 9h-7V2h2v5h5zM2 9h7V2H7v5H2zm19 13.086H11a2 2 0 0 1-2-2v-8.172a2 2 0 0 1 2-2h10a2 2 0 0 1 2 2v8.172a2 2 0 0 1-2 2M11 11.914v8.172h10v-8.172z" />
</svg>
